assets/images/icons/show.svg

<!DOCTYPE svg PUBLIC "-//W3C//DTD SVG 1.1//EN" "http://www.w3.org/Graphics/SVG/1.1/DTD/svg11.dtd">
<!-- Uploaded to: SVG Repo, www.svgrepo.com, Transformed by: SVG Repo Mixer Tools -->
<svg width="800px" height="800px" viewBox="0 0 24 24" fill="none" xmlns="http://www.w3.org/2000/svg">
<g id="SVGRepo_bgCarrier" stroke-width="0"/>
<g id="SVGRepo_tracerCarrier" stroke-linecap="round" stroke-linejoin="round"/>
<g id="SVGRepo_iconCarrier"> <g id="Edit / Show"> <g id="Vector"> <path d="M3.5868 13.7788C5.36623 15.5478 8.46953 17.9999 12.0002 17.9999C15.5308 17.9999 18.6335 15.5478 20.413 13.7788C20.8823 13.3123 21.1177 13.0782 21.2671 12.6201C21.3738 12.2933 21.3738 11.7067 21.2671 11.3799C21.1177 10.9218 20.8823 10.6877 20.413 10.2211C18.6335 8.45208 15.5308 6 12.0002 6C8.46953 6 5.36623 8.45208 3.5868 10.2211C3.11714 10.688 2.88229 10.9216 2.7328 11.3799C2.62618 11.7067 2.62618 12.2933 2.7328 12.6201C2.88229 13.0784 3.11714 13.3119 3.5868 13.7788Z" stroke="#5A121A" stroke-width="2" stroke-linecap="round" stroke-linejoin="round"/> <path d="M10 12C10 13.1046 10.8954 14 12 14C13.1046 14 14 13.1046 14 12C14 10.8954 13.1046 10 12 10C10.8954 10 10 10.8954 10 12Z" stroke="#5A121A" stroke-width="2" stroke-linecap="round" stroke-linejoin="round"/> </g> </g> </g>
</svg>

<svg xmlns="http://www.w3.org/2000/svg" width="800" height="800" fill="none" viewBox="0 0 24 24"><g stroke="#5A121A" stroke-linecap="round" stroke-linejoin="round" stroke-width="2"><path d="M3.587 13.779c1.78 1.769 4.883 4.22 8.413 4.22 3.53 0 6.634-2.451 8.413-4.22.47-.467.705-.7.854-1.159.107-.327.107-.913 0-1.24-.15-.458-.385-.692-.854-1.159C18.633 8.452 15.531 6 12 6c-3.53 0-6.634 2.452-8.413 4.221-.47.467-.705.7-.854 1.159-.107.327-.107.913 0 1.24.15.458.384.692.854 1.159Z"/><path d="M10 12a2 2 0 1 0 4 0 2 2 0 0 0-4 0Z"/></g></svg>
